src/assets/outline/DocumentCloud.svg

<svg width="24" height="24" viewBox="0 0 24 24"  xmlns="http://www.w3.org/2000/svg">
<path d="M9 22.75C3.57 22.75 1.25 20.43 1.25 15V9C1.25 3.57 3.57 1.25 9 1.25H14C14.41 1.25 14.75 1.59 14.75 2C14.75 2.41 14.41 2.75 14 2.75H9C4.39 2.75 2.75 4.39 2.75 9V15C2.75 19.61 4.39 21.25 9 21.25C9.41 21.25 9.75 21.59 9.75 22C9.75 22.41 9.41 22.75 9 22.75Z" />
<path d="M22 13.75C21.59 13.75 21.25 13.41 21.25 13V10C21.25 9.59 21.59 9.25 22 9.25C22.41 9.25 22.75 9.59 22.75 10V13C22.75 13.41 22.41 13.75 22 13.75Z" />
<path d="M22 10.7505H18C14.58 10.7505 13.25 9.42048 13.25 6.00048V2.00048C13.25 1.70048 13.43 1.42048 13.71 1.31048C13.99 1.19048 14.31 1.26048 14.53 1.47048L22.53 9.47048C22.74 9.68048 22.81 10.0105 22.69 10.2905C22.57 10.5705 22.3 10.7505 22 10.7505ZM14.75 3.81048V6.00048C14.75 8.58048 15.42 9.25048 18 9.25048H20.19L14.75 3.81048Z" />
<path d="M19.34 22.7503C19.33 22.7503 19.32 22.7503 19.32 22.7503H13.76C12.09 22.6303 11.25 21.3503 11.25 20.1303C11.25 19.1503 11.8 18.1203 12.86 17.7003C12.64 16.4503 12.96 15.2903 13.79 14.4203C14.81 13.3503 16.45 12.9203 17.87 13.3603C19.11 13.7403 20 14.7203 20.37 16.0803C21.42 16.4003 22.25 17.2303 22.59 18.3603C22.99 19.6703 22.62 21.0103 21.63 21.8703C21.02 22.4303 20.2 22.7503 19.34 22.7503ZM13.79 19.0103C13.03 19.0803 12.75 19.6503 12.75 20.1303C12.75 20.6103 13.03 21.1903 13.81 21.2503H19.32C19.83 21.2203 20.28 21.0703 20.64 20.7503C21.29 20.1803 21.34 19.3703 21.16 18.7903C20.98 18.2103 20.49 17.5603 19.65 17.4503C19.32 17.4103 19.06 17.1603 19 16.8303C18.78 15.4803 18.02 14.9803 17.43 14.8003C16.56 14.5303 15.51 14.8003 14.88 15.4703C14.45 15.9203 14.03 16.7303 14.5 18.0203C14.64 18.4103 14.44 18.8403 14.05 18.9803C13.96 19.0003 13.87 19.0103 13.79 19.0103Z" />
</svg>

<?xml version="1.0" encoding="UTF-8"?>
<svg width="24" height="24" viewBox="0 0 24 24" xmlns="http://www.w3.org/2000/svg">
 <path d="m9 22.75c-5.43 0-7.75-2.32-7.75-7.75v-6c0-5.43 2.32-7.75 7.75-7.75h5c0.41 0 0.75 0.34 0.75 0.75s-0.34 0.75-0.75 0.75h-5c-4.61 0-6.25 1.64-6.25 6.25v6c0 4.61 1.64 6.25 6.25 6.25 0.41 0 0.75 0.34 0.75 0.75s-0.34 0.75-0.75 0.75z"/>
 <path d="m22 13.75c-0.41 0-0.75-0.34-0.75-0.75v-3c0-0.41 0.34-0.75 0.75-0.75s0.75 0.34 0.75 0.75v3c0 0.41-0.34 0.75-0.75 0.75z"/>
 <path d="m22 10.75h-4c-3.42 0-4.75-1.33-4.75-4.75v-4c0-0.3 0.18-0.58 0.46-0.69 0.28-0.12 0.6-0.05 0.82 0.16l8 8c0.21 0.21 0.28 0.54002 0.16 0.82002s-0.39 0.46-0.69 0.46zm-7.25-6.94v2.19c0 2.58 0.67 3.25 3.25 3.25h2.19l-5.44-5.44z"/>
 <path d="m19.34 22.75h-0.02-5.56c-1.67-0.12-2.51-1.4-2.51-2.62 0-0.98 0.55-2.01 1.61-2.43-0.22-1.25 0.1-2.41 0.93-3.28 1.02-1.07 2.66-1.5 4.08-1.06 1.24 0.38 2.13 1.36 2.5 2.72 1.05 0.32 1.88 1.15 2.22 2.28 0.4 1.31 0.03 2.65-0.96 3.51-0.61 0.56-1.43 0.88-2.29 0.88zm-5.55-3.74c-0.76 0.07-1.04 0.64-1.04 1.12s0.28 1.06 1.06 1.12h5.51c0.51-0.03 0.96-0.18 1.32-0.5 0.65-0.57 0.7-1.38 0.52-1.96s-0.67-1.23-1.51-1.34c-0.33-0.04-0.59-0.29-0.65-0.62-0.22-1.35-0.98-1.85-1.57-2.03-0.87-0.27-1.92 0-2.55 0.67-0.43 0.45-0.85 1.26-0.38 2.55 0.14 0.39-0.06 0.82-0.45 0.96-0.09 0.02-0.18 0.03-0.26 0.03z"/>
</svg>
